X: 41061
T: Trip To Nenagh, The
R: reel
M: 4/4
K: Dmixolydian
|:dcAG FAD2|A,DFA dcAG|Ad~d2 A=fed|c2Gc EcGE|
dcAG FAD2|A,DFA dcAG|Ad~d2 AdFA|GB,EG FD~D2:|
|:Ad~d2 adfa|gfed ^caec|d2AG FAD2|(3EFG AB c2AG|
Ad~d2 fded|^cdef gefg|a2ea ^caec|dBAG FD~D2:|
|:d2AG FD~D2|A,DFA dcAG|Add^c d=fed|c2Gc EcGc|
d2AG FD~D2|A,DFA dcAG|Ad~d2 AdFA|GEAG FD~D2:|
|:d2ed adfa|g2ed ^cAfe|d2AG FD~D2|(3EFG AB c2Bc|
Adde fded|cdef g2fg|a2ga (3efg d^c|A=cGE ED~D2:|

